X: 1943
T: Arrane Y Chlean
R: waltz
M: 3/4
K: Dmajor
DE|:"D"F2 F2 D2|"G"E2 F2 G2|"D"F2 F2 D2|"Am"=C2 A,2 DE|
"D" F2 F2 D2|"G"E2 F2 G2|"C"E2 D2 =C2|1 "D"D4 DE:|2 "D"D4 A2 B2||
"Am"=c4 BA|"G"B4 AG|"D"A2 A2 G2|F2 D2 AB|
"Am"=c4 BA|"G"B4 AG|"D"A2 d2 c2|d4 AB|"Am"=c4 BA|"G"B4 AG|
"D"A2 A2 G2|F2 D2 DE|"D"F2 F2 D2|"G"E2 F2 G2|"C"E2 D2 =C2|"D"D4||

